X:1
T:Pareil à la mer profonde
T:15. Pareil à la mer profonde...
T:20 Mélodies 
T:Augusta Holmès
T:(Holmès)
T:OpenScore (CC0)
T:OpenScore (CC0)
T:OpenScore (CC0)
C:Holmès, Augusta Mary Anne
Z:OpenScore (CC0)
%%score 1 { ( 2 3 ) | ( 4 5 ) }
L:1/8
Q:1/4=42
M:4/4
K:Ab
V:1 treble nm="Chant\nVoice"
V:2 treble nm="Piano"
V:3 treble 
V:4 bass 
V:5 bass 
V:1
"^Lento" z8 | z4 z2 z!mf! C | c2- (3c2 A/ G/ (3c2 c/ c/ (3:2:2e2 e | %3
w: |Mon|cœur * est pa- reil à la mer pro-|
 c2- c/(A/G/F/) (3C z F (3F2 =E/ F/ | c4- c/ A/ G/ F/ (3:2:2C2 C | C4- C2- (3C z C | %6
w: \- fon- * * * * de Où luit un pa-|lais _ qu'on n'a ja- mais trou-|vé;  _ _ Sur|
 c2- (3c2 A/ G/ (3c2 c/ c/ (3:2:2e2 e |"^sans presser" c2- c/(A/G/F/) (3C z F (3F2 =E/ F/ | %8
w: l'or _ merveilleux * * se re- fer- me|l'on- * * * * de... Mon cœur se fer-|
 c4- c/ A/ G/ F/ (3:2:2C2 C | F4- F2- (3F z!p! C | c2- (3c2 A/ F/ E2- (3E z E | %11
w: \- ma _ sur son amour * rê-|vé.  _ _ Les|an- * ges du jour,  _ les|
 (A2 (3A2) F/ _D/ C2 (3C z!<(! C | F2- (3F2 G/ A/ c2- c/ A/ G/ F/!<)! |!f! e3 B c2- (3c z C | %14
w: mons- * tres de l'om- bre, As-|siè- * gent en vain _ le bleu rem-|part des flots; * Mon|
 c2- (3c2 A/ G/ (3c2 c/ c/ (3:2:2e2 e |"^sans presser" c2- c/(A/G/F/) (3C z F (3F2 =E/ F/ | %16
w: cœur _ très joyeux, * ou mon cœur très|som- * * * * bre, N'a rien ré- vé-|
 =c4- c/ A/ G/ F/ (3:2:2C2 C | F4- F2 z!p! C ||[K:F] c2- (3c2 A/ G/ (3c2 c/ c/ (3:2:2_e2 e | %19
w: \- lé:  _ ni ri- re ni san-|glots.  _ Mais|toi, _ tu verras, * ô ma chère i-|
"^sans presser" c2- c/(A/G/F/) (3C z F (3F2 =E/ F/ | %20
w: \- do- * * * * le! Ré- gner dans mon|
 c4-[Q:1/4=34] c/"^cédez un peu." _A/ G/ (F/ (3:2:2C2) C |"^a Tempo."[Q:1/4=42] C4- C2 z!f! _E | %22
w: cœur _ le charme * de tes|yeux.  _ A-|
"^triomphalement" _e2- e/ c/ B/ _A/ F3/2 G/ _E2- | E/ z/ !^!_A !^!B !^!c!f! (!^!f4 || %24
w: \- lors _ je chan- te- rai ton nom, |_ et ma pa- ro-|
[M:2/4] F2-) F/ z/ !^!F ||[M:4/4]!f! c2- c/ F/ G/ A/ C2- C/ F/ G/ A/ | !^!d4 !^!c4 | %27
w: le _ Des|gloi- * res de l'Amour _ _ in- cen- die-|ra les|
!ff! !^!f4- f2 z2 | z8 | z8 | z8 | z8 |] %32
w: cieux!  _|||||
V:2
!f!"^Lento" [fac']2!>(! [fac']2 [fac']2 [fac']2 | [fac']2 [fac']2 [fac']2 [fac']2!>)! | %2
!p! [fac']2 [fac']2 [fac']2 [gbe']2 | [fac']2 [fac']2 [fac']2 [fac']2 | %4
 [fac']2 [fac']2 [fac']2 [=ebc']2 |!p!!<(! [fac']4-!<)!!>(! [fac']2-!>)! [fac'] z | %6
!p! [fac']2 [fac']2 [fac']2 [gbe']2 | [fac']2 [fac']2 [fac']2 [fa_c']2 | %8
 [fa=c']2 [fac']2 [fac']2 [=ebc']2 |!p!!<(! [fac']4-!<)!!>(! [fac']2-!>)! [fac'] z | %10
 [eac']2 [eac']2 [eac']2 [eac']2 | [fac']2 [fac']2 [eac']2 [gc'e']2 | %12
!f!"_cresc." [fad']2 [faf']2 [eac'e']2 [ac'a']2 |!f! [egd'e']2 [egd'e']2 [=egc'=e']2 [egc'e']2 | %14
!mf! [fac'f']2!p! [fac']2 [fac']2 [gbe']2 | [fac']2 [fac']2 [fac']2 [fa_c']2 | %16
 [fa=c']2 [fac']2 [fac']2 [=ebc']2 |"_dim." [f=ac']4- [fac']2- [fac'] z || %18
[K:F]!p! [fac']2 [fac']2 [fac']2 [gb_e']2 | ([fac']2 [fac']2 [fac']2 [f_a_c']2) | %20
!pp! [_e_a=c']2 [ea_e']2"_cédez un peu." [faf']2 [g_d'g']2 | %21
"_a Tempo." ([_ac'_a']2 [ac'g']2 [ac'f']2 [ac'_e']2) |!f! [_e_ac']2 [eac']2 [eg_d']2 [eg_e']2 | %23
!<(! [_e_ac']2 [eac']2 [f_c'f']2!<)!!mf! [fc'f']2 ||[M:2/4]"_cresc." [f_c'f']2 [fc'f']2 || %25
[M:4/4]!f! !^![f=af']2 !^![eae']2 !^![dad']!^![faf'] !^![cfc']2 | %26
"_cresc." !^![^FAd^f]4 !^![GBeg]4 | (!///-![fa]2"_cre" A2) (!///-![fb] B) (!///-![ec'] c) | %28
 (!///-![fa]2 A2) (!///-![fb] B) (!///-![ec'] c)"_do" | %29
!8va(! (!///-![f'a']2 a2) (!///-![f'b'] b) (!///-![e'c''] c') |!ff! (!///-![f'a'c'']4 c'4) | %31
 [c'f'a'c'']2!8va)! z2 !fermata!z4 |] %32
V:3
 z2 [FAc]2 [FAc]2 [FAc]2 | [FAc]2 [FAc]2 [FAc]2 [FAc]2 | [FAc]2 [FAc]2 [FAc]2 [EGB]2 | %3
 [FAc]2 [FAc]2 [FAc]2 [FAc]2 | [CFAc]2 [CFAc]2 [CFAc]2 [CGc]2 | x8 | z2 [FAc]2 [FAc]2 [EGB]2 | %7
 [FAc]2 [FAc]2 [FAc]2 [_DFA_d]2 | [=CFA=c]2 [CFAc]2 [CFAc]2 [CGc]2 | x8 | z2 [EAc]2 [EAc]2 [EAc]2 | %11
 z2 [EAc]2 z2 [EGc]2 | z2 [DFA]2 z2 [EAce]2 | z2 [EGBd]2 z2 [C=EGc]2 | z2 [FAc]2 [FAc]2 [EGB]2 | %15
 [FAc]2 [FAc]2 [FAc]2 [_DFA_d]2 | z2 [CFAc]2 [CFAc]2 [CGc]2 | x8 || %18
[K:F] z2 [CFAc]2 [CFAc]2 [B,_EGB]2 | [CFAc]2 [CFAc]2 [CFAc]2 [_DF_A_d]2 | z2 [_E_Ac]2 [EAc]2 z2 | %21
 z2 [_E_Ac]2 [EAc]2 [EAc]2 | z2 [_E_Ac]2 [EGB_d]2 [EGBd]2 | [_E_Ac]2 [EAc]2 x2 x2 ||[M:2/4] x4 || %25
[M:4/4] x8 | x8 | x8 | x8 |!8va(! x8 | x8 | x2!8va)! x6 |] %32
V:4
!ped! [F,,,A,,,C,,F,,]8- | [F,,,A,,,C,,F,,]8- | [F,,,A,,,C,,F,,]2!ped-up! z2 z4 | z8 | z8 | %5
!ped! [F,,,A,,,C,,F,,] !///-![F,,,A,,,C,,]7/2 F,,7/2 | [F,,,A,,,C,,F,,]2!ped-up! z2 z4 | z8 | z8 | %9
!ped! [F,,,A,,,C,,F,,] !///-![F,,,A,,,C,,]3/2 F,,3/2 !///-![F,,,A,,,C,,] F,, [F,,,A,,,C,,F,,]!ped-up! z | %10
!ped! A,,4- A,,2- A,,!ped-up! z |!ped! F,,2- F,,!ped-up! z!ped! C,2- C,!ped-up! z | %12
!ped! D,2- D,!ped-up! z!ped! E,2- E,!ped-up! z | %13
!ped! [E,,E,]2- [E,,E,]!ped-up! z!ped! [C,,C,]2- [C,,C,]!ped-up! z | %14
!ped! [F,,,A,,,C,,F,,]4- [F,,,A,,,C,,F,,]!ped-up! z z2 | z8 | %16
!ped! [=C,,=C,]4- [C,,C,]2!ped-up! z2 |!ped! [F,,,=A,,,C,,F,,] !///-![F,,,A,,,C,,]7/2 F,,7/2 || %18
[K:F] [F,,,A,,,C,,F,,]2!ped-up! z2 z4 | z8 | %20
"_una corda"!ped! [_C,,_C,]4- [C,,C,]!ped-up! z (([E,,E,]2 | %21
!ped! [_A,,,_A,,]4-)) [A,,,A,,]2!ped-up! z2 |!ped! [_C,,_C,]4- [C,,C,]2!ped-up! z2 | %23
 z4!ped! (!///-!_D,,2 _D,2) ||[M:2/4] (!///-!_D,,2 _D,2)!ped-up! || %25
[M:4/4]!ped! z2[K:treble] !^![EAc]2 !^![DAc]!^![FAc] !^![CFA]2!ped-up! | %26
[K:bass]!ped! (!///-!C,,2 C,2) (!///-!C,,2 C,2)!ped-up! | %27
!f! !^![F,,,F,,]2!p! !^![E,,,E,,]2 !^![D,,,D,,]!^![G,,,G,,] !^![C,,,C,,]2 | %28
!ped! z2!ped-up! !^![E,,E,]2 !^![D,,D,]!^![G,,G,] !^![C,,C,]2 | %29
!ped! z2!ped-up! !^![E,E]2 !^![D,D]!^![G,G] !^![C,C]2 |!ped! (!///-![F,,,A,,,C,,]4 F,,4) | %31
 [F,,,A,,,C,,F,,]2!ped-up! z2 !fermata!z4 |] %32
V:5
 x8 | x8 | x8 | x8 | x8 | x8 | x8 | x8 | x8 | x8 | x8 | x8 | x8 | x8 | x8 | x8 | x8 | x8 || %18
[K:F] x8 | x8 | x8 | x8 | x8 | x8 ||[M:2/4] x4 ||[M:4/4] [C,,C,]8[K:treble] |[K:bass] x8 | x8 | %28
 [F,,,F,,]-[F,,,F,,]/ z/ x6 | [F,,,F,,]-[F,,,F,,]/ z/ x6 | x8 | x8 |] %32

